src/assets/duotone/WalletMinus.svg

<svg width="24" height="24" viewBox="0 0 24 24"  xmlns="http://www.w3.org/2000/svg">
<path opacity="0.8" d="M12.9002 2.52003L12.8702 2.59003L9.9702 9.32003H7.1202C6.4402 9.32003 5.8002 9.45003 5.2002 9.71003L6.9502 5.53003L6.9902 5.44003L7.0502 5.28003C7.0802 5.21003 7.1002 5.15003 7.1302 5.10003C8.4402 2.07003 9.9202 1.38003 12.9002 2.52003Z" />
<path d="M18.2902 9.52002C17.8402 9.39002 17.3702 9.32002 16.8802 9.32002H9.97021L12.8702 2.59002L12.9002 2.52002C13.0402 2.57002 13.1902 2.64002 13.3402 2.69002L15.5502 3.62002C16.7802 4.13002 17.6402 4.66002 18.1702 5.30002C18.2602 5.42002 18.3402 5.53002 18.4202 5.66002C18.5102 5.80002 18.5802 5.94002 18.6202 6.09002C18.6602 6.18002 18.6902 6.26002 18.7102 6.35002C18.9702 7.20002 18.8102 8.23002 18.2902 9.52002Z" />
<path opacity="0.4" d="M21.7602 14.2V16.15C21.7602 16.35 21.7502 16.55 21.7402 16.74C21.5502 20.24 19.6002 22 15.9002 22H8.10023C7.85023 22 7.62023 21.98 7.39023 21.95C4.21023 21.74 2.51023 20.04 2.29023 16.86C2.26023 16.62 2.24023 16.39 2.24023 16.15V14.2C2.24023 12.19 3.46023 10.46 5.20023 9.71001C5.80023 9.45001 6.44023 9.32001 7.12023 9.32001H16.8802C17.3702 9.32001 17.8402 9.39001 18.2902 9.52001C20.2902 10.13 21.7602 11.99 21.7602 14.2Z" />
<path opacity="0.6" d="M6.95023 5.53003L5.20023 9.71003C3.46023 10.46 2.24023 12.19 2.24023 14.2V11.27C2.24023 8.43003 4.26023 6.06003 6.95023 5.53003Z" />
<path opacity="0.6" d="M21.76 11.27V14.2C21.76 11.99 20.29 10.13 18.29 9.52003C18.81 8.23003 18.97 7.20003 18.71 6.35003C18.69 6.26003 18.66 6.18003 18.62 6.09003C20.49 7.06003 21.76 9.03003 21.76 11.27Z" />
<path d="M14.5 16.75H9.5C9.09 16.75 8.75 16.41 8.75 16C8.75 15.59 9.09 15.25 9.5 15.25H14.5C14.91 15.25 15.25 15.59 15.25 16C15.25 16.41 14.91 16.75 14.5 16.75Z" />
</svg>

<?xml version="1.0" encoding="UTF-8"?>
<svg width="24" height="24" viewBox="0 0 24 24" xmlns="http://www.w3.org/2000/svg">
 <path d="m12.9 2.52-0.03 0.07-2.9 6.73h-2.85c-0.68 0-1.32 0.13-1.92 0.39l1.75-4.18 0.04-0.09 0.06-0.16c0.03-0.07 0.05-0.13 0.08-0.18 1.31-3.03 2.79-3.72 5.77-2.58z" opacity=".8"/>
 <path d="m18.29 9.52c-0.45-0.13-0.92-0.2-1.41-0.2h-6.91l2.9-6.73 0.03-0.07c0.14 0.05 0.29 0.12 0.44 0.17l2.21 0.93c1.23 0.51 2.09 1.04 2.62 1.68 0.09 0.12 0.17 0.23 0.25 0.36 0.09 0.14 0.16 0.28 0.2 0.43 0.04 0.09 0.07 0.17 0.09 0.26 0.26 0.85 0.1 1.88-0.42 3.17z"/>
 <path d="m21.76 14.2v1.95c0 0.2-0.01 0.4-0.02 0.59-0.19 3.5-2.14 5.26-5.84 5.26h-7.8c-0.25 0-0.48-0.02-0.71-0.05-3.18-0.21-4.88-1.91-5.1-5.09-0.03-0.24-0.05-0.47-0.05-0.71v-1.95c0-2.01 1.22-3.74 2.96-4.49 0.6-0.26 1.24-0.39 1.92-0.39h9.76c0.49 0 0.96 0.07 1.41 0.2 2 0.60999 3.47 2.47 3.47 4.68z" opacity=".4"/>
 <path d="m6.9502 5.53-1.75 4.18c-1.74 0.74997-2.96 2.48-2.96 4.49v-2.93c0-2.84 2.02-5.21 4.71-5.74z" opacity=".6"/>
 <path d="m21.76 11.27v2.93c0-2.21-1.47-4.07-3.47-4.68 0.52-1.29 0.68-2.32 0.42-3.17-0.02-0.09-0.05-0.17-0.09-0.26 1.87 0.97 3.14 2.94 3.14 5.18z" opacity=".6"/>
 <path d="m14.5 16.75h-5c-0.41 0-0.75-0.34-0.75-0.75s0.34-0.75 0.75-0.75h5c0.41 0 0.75 0.34 0.75 0.75s-0.34 0.75-0.75 0.75z"/>
</svg>
